icons/1_Primary/Monex.svg

<svg width="1024" height="1024" viewBox="0 0 1024 1024" fill="none" xmlns="http://www.w3.org/2000/svg">
<g clip-path="url(#clip0_2_2832)">
<path d="M512 1024C794.77 1024 1024 794.77 1024 512C1024 229.23 794.77 0 512 0C229.23 0 0 229.23 0 512C0 794.77 229.23 1024 512 1024Z" fill="#F9DE81"/>
<path d="M504.73 405C504.73 406.349 504.33 407.668 503.581 408.789C502.831 409.911 501.766 410.785 500.52 411.301C499.274 411.817 497.903 411.952 496.58 411.689C495.257 411.426 494.041 410.776 493.088 409.823C492.134 408.869 491.484 407.654 491.221 406.331C490.958 405.008 491.093 403.636 491.609 402.39C492.125 401.144 493 400.079 494.121 399.329C495.243 398.58 496.561 398.18 497.91 398.18C499.719 398.18 501.454 398.899 502.733 400.178C504.012 401.457 504.73 403.191 504.73 405ZM574.41 490.52C543.41 481.52 548.64 448.52 546.22 429.43C544.32 414.43 546.48 411.15 542.38 395.88C537.44 377.43 517.87 369.03 500.59 373.88C492.59 376.13 478.29 383.3 464.35 429.55C462.97 434.14 467.68 436.55 470.11 436.55C472.54 436.55 478.31 433.69 481.63 432C488.91 428.3 490.72 430.2 489.57 435.72C488.36 441.55 486.87 446.15 486.87 446.15C486.87 446.15 486.5 449.45 490.35 448.35C495.82 446.79 506.61 441.75 511.24 440.68C516.94 439.36 517.49 447.07 512.24 450.86C505.411 455.794 497.544 459.098 489.24 460.52C487.66 460.82 483.58 461.52 482.71 463.65C465.07 507.47 423.45 519.59 405.01 503C375.01 476 357.52 434.31 380.93 370.55C400.03 318.55 450.76 275.75 514.26 275.75C585.52 275.75 633.11 324.41 646.92 362.62C673.47 435.83 621.8 504.25 574.41 490.48V490.52ZM683.14 700.87C677.33 698.48 651.81 695.21 642.54 683.4C633.27 671.59 605.26 619.82 597.07 584.08C593.82 569.89 598.79 560.26 612.66 552.08C647.87 531.32 697.75 497.78 697.75 406.08C697.75 307.84 610.43 232.97 516.57 232.97C485.21 232.821 454.326 240.646 426.821 255.711C399.316 270.775 376.091 292.585 359.33 319.09C310.17 396.49 305.79 517.76 416.08 569.66C428.55 575.53 436.62 590.2 433.7 608.45C431.7 620.76 425.16 646.77 412.81 673.19C400.46 699.61 378.39 713.88 362.69 718.88C353.2 721.88 338.61 725.12 331.97 729.22C324.58 733.78 323.16 744.97 335.89 744.97H443C449.59 744.97 453.16 740.84 455.58 736.63C458 732.42 495 632.77 499.75 621.53C504.5 610.29 508.02 598.82 514.83 598.82C518.13 598.82 520.06 601.96 521.16 606.13C522.26 610.3 552.16 728.06 553.79 734.05C556.57 744.05 563.24 745.05 569.23 745.05H678.49C702.32 745 703.25 709.13 683.14 700.87Z" fill="white"/>
</g>
<defs>
<clipPath id="clip0_2_2832">
<rect width="1024" height="1024" fill="white"/>
</clipPath>
</defs>
</svg>

<svg xmlns="http://www.w3.org/2000/svg" width="1024" height="1024" fill="none">
   <g clip-path="url(#a)">
      <path fill="#F9DE81" d="M512 1024c282.77 0 512-229.23 512-512S794.77 0 512 0 0 229.23 0 512s229.23 512 512 512Z"/>
      <path fill="#fff" d="M504.73 405a6.821 6.821 0 1 1-13.642 0 6.821 6.821 0 0 1 13.642 0Zm69.68 85.52c-31-9-25.77-42-28.19-61.09-1.9-15 .26-18.28-3.84-33.55-4.94-18.45-24.51-26.85-41.79-22-8 2.25-22.3 9.42-36.24 55.67-1.38 4.59 3.33 7 5.76 7 2.43 0 8.2-2.86 11.52-4.55 7.28-3.7 9.09-1.8 7.94 3.72-1.21 5.83-2.7 10.43-2.7 10.43s-.37 3.3 3.48 2.2c5.47-1.56 16.26-6.6 20.89-7.67 5.7-1.32 6.25 6.39 1 10.18a55.172 55.172 0 0 1-23 9.66c-1.58.3-5.66 1-6.53 3.13-17.64 43.82-59.26 55.94-77.7 39.35-30-27-47.49-68.69-24.08-132.45 19.1-52 69.83-94.8 133.33-94.8 71.26 0 118.85 48.66 132.66 86.87 26.55 73.21-25.12 141.63-72.51 127.86v.04Zm108.73 210.35c-5.81-2.39-31.33-5.66-40.6-17.47-9.27-11.81-37.28-63.58-45.47-99.32-3.25-14.19 1.72-23.82 15.59-32 35.21-20.76 85.09-54.3 85.09-146 0-98.24-87.32-173.11-181.18-173.11a185 185 0 0 0-157.24 86.12c-49.16 77.4-53.54 198.67 56.75 250.57 12.47 5.87 20.54 20.54 17.62 38.79-2 12.31-8.54 38.32-20.89 64.74-12.35 26.42-34.42 40.69-50.12 45.69-9.49 3-24.08 6.24-30.72 10.34-7.39 4.56-8.81 15.75 3.92 15.75H443c6.59 0 10.16-4.13 12.58-8.34s39.42-103.86 44.17-115.1c4.75-11.24 8.27-22.71 15.08-22.71 3.3 0 5.23 3.14 6.33 7.31 1.1 4.17 31 121.93 32.63 127.92 2.78 10 9.45 11 15.44 11h109.26c23.83-.05 24.76-35.92 4.65-44.18Z"/>
   </g>
   <defs>
      <clipPath id="a">
         <path fill="#fff" d="M0 0h1024v1024H0z"/>
      </clipPath>
   </defs>
</svg>
